X:41
%%topspace -50
%%musicspace -13
T: Reel St Joseph
M:4/4
L:1/8
R:reel
K:Gmaj
D2| "G"G2BG "D"FGAF| "G"GABG D4| "C"E2cB AGFE| "D"Dd2e dcBA|
"G"G2BG "D"FGAF| "Em"GABG "Bm"D4| "C"E2cB AGFE| "D"DcAF "G"G4:|
|:A2| "G"B3c BAGF| "C"EDC2 c2B2| "Am"A3B AGFE| "D"Dd2e dcBA|
"G" B3c BAGF| "C"EDC2 c2B2| "Am" A3B AGFE| "D"DcAF "G"G4:|

